X:1
T:Les Feuilles Mortes
T:Les Feuilles Mortes
T:Joseph Kosma
C:Joseph Kosma
Z:All Rights Reserved
L:1/4
Q:1/4=120
M:4/4
K:Emin
V:1 treble transpose=-12 nm="MusicXML Part"
%%MIDI program 25
%%MIDI control 7 102
%%MIDI control 10 64
V:1
 E F G ||"Am7" c4- |"D7" c D E F |"G69" B4- |"C69" B C D E |"F#m7b5" A4- |"B7" A B, ^C ^D | %7
"Em6" G4 | z E F G |"Am7" c4- |"D7" c D E F |"G69" B4- |"C69" B C D E |"F#m7b5" A4- |"B7" A F A G | %15
"Em6" E4 | z2 ^D E |"F#m7b5" F B, F2- |"B7" F F E F |"Em6" G4- | G G F G |"Am7" A4- |"D7" A D d c | %23
"G69" B4- |"C69" B2 ^A B |"F#m7b5" c c A A |"B7" F3 c |"Em7" B2"A7" B2- |"Dm7" B2"G7" E2 | %29
"C69" A3 G |"F#m7b5" F2"B7" G B, |"Em6" E4- |"E7" E z z2 |] %33

